Catalina-light/actions/16/kdenlive-align-vert.svg

<svg width="16" height="16" viewBox="0 0 16 16" xmlns="http://www.w3.org/2000/svg">
<defs>
<style id="current-color-scheme" type="text/css">.ColorScheme-Text { color:#5c616c; } .ColorScheme-Highlight { color:#5294e2; }</style>
</defs>
<path class="ColorScheme-Text" d="m4 0 4 7 4-7h-8zm4 7h-4v2h4 4v-2h-4zm0 2-4 7h8l-4-7z" fill="#363636"/>
</svg>

<svg xmlns="http://www.w3.org/2000/svg" width="16" height="16" viewBox="0 0 16 16">
 <defs>
  <style id="current-color-scheme" type="text/css">
   .ColorScheme-Text { color:#5c616c; } .ColorScheme-Highlight { color:#5294e2; }
  </style>
 </defs>
 <path style="fill:currentColor" class="ColorScheme-Text" d="M 4 0 L 8 7 L 12 0 L 4 0 z M 8 7 L 4 7 L 4 9 L 8 9 L 12 9 L 12 7 L 8 7 z M 8 9 L 4 16 L 12 16 L 8 9 z"/>
</svg>
